X:1022
T:When I Grow Too Old To Dream
C:Joe Buchanan's Scottish Tome - Page 614.2
I:614 2
Z:Carl Allison
R:Waltz
L:1/4
M:3/4
K:C
"C"(C2 D) | "C"(E2 F) | "C"(G2 E) | "C"C3 | "G"D2 D | "G"D (C D) | "C"E3 | "C"C3 |
"F"(F2 G) | "F"(A2 B) | "C"(c2 G) | "C"(E2 C) | "C"E2 E | "G"D C D | "C"C3- | "C"C3 |
"G"G3 | "G"(F2 G) | "C"E3- | "C"E3 | "G"E3 | "G"(D2 E) | "C"C3- | "C"C3 |
"F"(F2 G) | "F"(A2 B) | "C"(c2 G) | "C"(E2 C) | "C"E2 E | "G"D C D | "C"C3- | "C"C3 :|

